X: 2039
Q: "Strathspey."
M: C
L: 1/8
K: A
c |\
e |\
a<ec>e f<ae>c | d>B d/c/B/A/ G<BB>g |\
a<ec>e f<ae>c | (3def e>d c<AA>g |
a<ec>e f<ae>c | d>B d/c/B/A/ G<B B>d |\
c<Ae>c d<Bf>d | (3cde (3efg | a<A A |]


